!!!SOCIAL_FUNCTION:	songs to insure success
!!!PDT:	1909
!!!OTL: No_66_Hunting_Song_(b).krn
!!!REG: Great_Lakes
!!!LANG: Non-Tone
!!!LING_GROUP: Algonquin
**kern
*staff1
=1-
*clefF4
*k[b-e-a-]
*M3/4
4F\
4F\
4G\
=2||
*M2/4
2G\
=3
2G\
=4||
*M3/4
[2A-\
8A-\L]
8A-\J
=5||
*M2/4
4G\
4G\
=6||
*M3/4
4F\
2F\
=7
[2F\
8F\L]
8G\J
=8||
*M2/4
4.G\
8G\
=9
4E-\
4E-\
=10
4C/
4C/
=11
4.r
8E-\
=12
2E-\
=13
2F\
=14||
*M3/4
4E-\
2C/
=15||
*M2/4
2C/
=16||
*M3/4
4C/
2C/
==
*-
